X:147
T:Hughie Travers'
Z: id:dc-reel-135
M:C
L:1/8
K:G Major
e|dBBA B2GB|dBGB AGED|GABd gaba|gedB A2ge|!
dBBA B2GB|dBGB AGED|GABd gaba|gedB G3:|!
A|Bdd2 edd2|gdfd edgd|Bdef g2bg|gedB A2GA|!
Bdd2 edd2|gdfd edgd|Bdef g2bg|gedB G3:|!

